X: 2
T: High Caul Cap
R: polka
M: 2/4
L: 1/8
K: Dmaj
A>B|d3e f2a2|g>fe>d f3f|f2e2 e2d<e|f2e2 e2d<B|d3e f2a2|g>fe>d f2e>f|d2B2 B2A>B|d2B2 B2:||:f<g|a3g f2e>f|d<Bd<e f3f|f2e2 e2d<e|f2e2 e2f<g|a3g f2e>f|d<Bd<e f2e>f|d2B2 B2A>B|d2B2 B2:|


Tune 1524	Setting 24183

